X: 1412
T: An TOileán Aerach
R: waltz
M: 3/4
K: Edorian
AF|:E3 FAB|(3cBA Bc ef|e3 c BA|F4 AF|E3 FAB|
(3cBA Bc BA|(B6|B4) AF|E3 FAB|(3cBA Bc ef|
a3 fab|c'3 c' ba|fa ef ce|e3 c BA|A6|1 z4AF:|2 z3aba||
|:f4 af|e4 fe|c3 c BA|F4 EF|B3 A Bc|B4 EF|A3 F AB|ce fa ba|
f4af|e4 (3efa|b4 ab|c'3 c'ba|fa ef ce|ec ec BA|A6:|

